src/assets/svg/dashboard.svg

<svg xmlns="http://www.w3.org/2000/svg" viewBox="0 0 43 45" fill="none">
  <path d="M21.299 42.2324C20.1098 42.2324 18.9029 41.9524 17.9622 41.3739L8.20041 35.458C4.22468 32.64 3.9762 32.2107 3.9762 27.7878V17.001C3.9762 12.578 4.20693 12.1488 8.11166 9.3681L17.9444 3.39617C19.8081 2.25777 22.7366 2.25777 24.6002 3.39617L34.3976 9.33078C38.3733 12.1488 38.6218 12.578 38.6218 17.001V27.7691C38.6218 32.1921 38.391 32.6213 34.4863 35.402L24.6535 41.3739C23.695 41.9524 22.4881 42.2324 21.299 42.2324ZM21.299 5.35571C20.5535 5.35571 19.8258 5.50501 19.3111 5.82227L9.54931 11.7569C6.65626 13.8097 6.65626 13.8097 6.65626 17.001V27.7691C6.65626 30.9604 6.65626 30.9604 9.62031 33.0692L19.3111 38.9478C20.3583 39.5823 22.2574 39.5823 23.3046 38.9478L33.0664 33.0132C35.9417 30.9604 35.9417 30.9604 35.9417 27.7691V17.001C35.9417 13.8097 35.9417 13.8097 32.9777 11.7009L23.2868 5.82227C22.7721 5.50501 22.0444 5.35571 21.299 5.35571Z" />
  <path d="M21.2985 29.3931C17.6245 29.3931 14.6427 26.2578 14.6427 22.3947C14.6427 18.5316 17.6245 15.3964 21.2985 15.3964C24.9725 15.3964 27.9543 18.5316 27.9543 22.3947C27.9543 26.2578 24.9725 29.3931 21.2985 29.3931ZM21.2985 18.1957C19.0976 18.1957 17.305 20.0806 17.305 22.3947C17.305 24.7089 19.0976 26.5937 21.2985 26.5937C23.4993 26.5937 25.292 24.7089 25.292 22.3947C25.292 20.0806 23.4993 18.1957 21.2985 18.1957Z" />
</svg>

<svg xmlns="http://www.w3.org/2000/svg" viewBox="0 0 43 45" fill="none"><path d="M21.299 42.232c-1.19 0-2.396-.28-3.337-.858L8.2 35.458c-3.975-2.818-4.224-3.247-4.224-7.67V17c0-4.423.23-4.852 4.136-7.633l9.832-5.972c1.864-1.138 4.793-1.138 6.656 0l9.798 5.935c3.975 2.818 4.224 3.247 4.224 7.67v10.768c0 4.423-.231 4.852-4.136 7.633l-9.832 5.972c-.959.578-2.166.858-3.355.858m0-36.876c-.745 0-1.473.149-1.988.466L9.55 11.757C6.656 13.81 6.656 13.81 6.656 17v10.768c0 3.191 0 3.191 2.964 5.3l9.691 5.879c1.047.634 2.946.634 3.994 0l9.761-5.935c2.876-2.053 2.876-2.053 2.876-5.244V17.001c0-3.191 0-3.191-2.964-5.3l-9.691-5.879c-.515-.317-1.243-.466-1.988-.466"/><path d="M21.299 29.393c-3.674 0-6.656-3.135-6.656-6.998s2.982-6.999 6.656-6.999 6.655 3.136 6.655 6.999-2.982 6.998-6.655 6.998m0-11.197c-2.201 0-3.994 1.885-3.994 4.199s1.793 4.199 3.994 4.199c2.2 0 3.993-1.885 3.993-4.2 0-2.313-1.793-4.198-3.994-4.198"/></svg>
